X:447
T: WIE WIRD MIR DENN GESCHEHEN
N: E1680
O: Europa, Mitteleuropa, Deutschland
R: Staende -, Hofe -, Ritter - Lied, Liebe
M: 4/4
L: 1/8
K: F
c2 | c3cc2c2 | A4A2
F2 | G2A2B2c2 | A4z2
c2 | c3cc2c2 | A4A2
F2 | G2A2B2c2 | A4z2
G2 | G3FE2F2 | G6
G2 | G3FE2F2 | G4z2
c2 | c2A2B2c2 | d4d2
cB | A2F2F2E2 | F6

@@@ Tune index: 5131
